X:394
T:Bieldside 
C:Joe Buchanan's Scottish Tome - Page 350.0
I:350 0
C:Donald MacLeod
R:March
Z:Carl Allison
L:1/16
M:2/4
K:D
f>e | "D"d2A>B "A"d2f>g | "D7"a>fe>d "G"B2A>B | "D"d2A>d f<af>d | "E7"e4 "A7"e2f>e |
"D"d2A>B "A"d2f>g | "D7"a>fe>d "G"B2A>B | "Bm"defg "A7"f<ae>f | "D"d4 d2 :|
fg | "D"a2f>e "A"d2f>g | "D7"g<af>d "G"B2A>B | "D"d2A>d "A7"f<af>d | "Em"e4 "A7"e2f>g |
"D"a2f>e "A"d2f>g | "D7"f<af>d "G"B2A>B | "Bm"defg "A7"f<ae>f | "D"d4 "A7"d2f>g |
"D"a2f>e "A"d2f>g | "D7"f<af>d "G"B2A>B | "D"d2Ad "A7"f<af>d | "Em"e4 "A7"e2f>e |
"D"d2A>B "A"d2f>g | "D7"a<fe>d "G"B2A>B | "Bm"defg "A7"f<ae>f | "D"d4 d2 :|
fe | "D"d2A>B "A"d2f>g | "D7"f<aa>f "A7"a2f>e | "D"d2A>g "A7"f<af>d | "E7"e4 "A7"e2f>e |
"D"d2A>B "A"d2f>g | "D7"f<aa>f "Fm"a2A>B | "Bm"defg "A7"f<ae>f | "D"d4 d2 :|
ag | "D"f>g "A"f<af>e | "D7"d2A>d "G"B2d>B | "D"ABde "A7"f<af>d | "Em"e4 "A7"e2a>g |
"D"f>g "F#m"f<af>e | "Bm"d2A>d "G"B2A>B | "Bm"defg "A7"f<ge>f | "D"d4 "A7"d2a>g |
"D"f>g "A"f<af>e | "D"d2A>d "G"B2d>B | "D"ABce "A7"f<af>d | "Em"e4 "A7"e2f>e |
"D"d2A>B d2f>g | "D7"f<aa>f "F#m"a2A>B | "E7"defg "A"f<ae>f | "D"d4 d2 |]

